dist/svg/u1F4E4.svg

<?xml version="1.0" encoding="UTF-8"?><svg id="a" xmlns="http://www.w3.org/2000/svg" viewBox="0 0 40 40"><g><path d="M7.398,37.587c-1.785,0-3.231-1.447-3.231-3.231v-9.259l3.389-7.94c.598-1.4,1.973-2.308,3.495-2.308H28.949c1.522,0,2.897,.908,3.495,2.308l3.389,7.94v9.259c0,1.785-1.447,3.231-3.231,3.231H7.398Z" fill="#2085f7" fill-rule="evenodd"/><rect x="10.491" y="17.544" width="19.018" height="15.738" rx="1.406" ry="1.406" fill="#d9dde0"/><rect x="8.076" y="20.978" width="23.848" height="11.903" rx="1.487" ry="1.487" fill="#fff"/><path d="M35.833,25.097H4.167v9.259c0,1.785,1.447,3.231,3.231,3.231h25.204c1.785,0,3.231-1.447,3.231-3.231v-9.259Z" fill="#64a7ff" fill-rule="evenodd"/><path d="M26.797,8.822l-6.133-6.133c-.367-.367-.961-.367-1.327,0l-6.133,6.133c-.305,.305-.089,.827,.342,.827h2.999c.298,0,.539,.241,.539,.539v3.168c0,.253,.205,.458,.458,.458h4.917c.253,0,.458-.205,.458-.458v-3.168c0-.298,.241-.539,.539-.539h2.999c.431,0,.647-.522,.342-.827Z" fill="#1e6ef4"/></g><rect x="0" width="40" height="40" fill="none"/></svg>

<svg id="Layer_1" data-name="Layer 1" xmlns="http://www.w3.org/2000/svg" viewBox="0 0 40 40"><defs><style>.cls-1{fill:#2085f7;}.cls-1,.cls-4{fill-rule:evenodd;}.cls-2{fill:#d9dde0;}.cls-3{fill:#fff;}.cls-4{fill:#64a7ff;}.cls-5{fill:#1e6ef4;}.cls-6{fill:none;}</style></defs><path class="cls-1" d="M7.4,37.587a3.231,3.231,0,0,1-3.231-3.232V25.1l3.389-7.941a3.8,3.8,0,0,1,3.5-2.308h17.9a3.8,3.8,0,0,1,3.5,2.308L35.833,25.1v9.258A3.231,3.231,0,0,1,32.6,37.587Z"/><rect class="cls-2" x="10.491" y="17.544" width="19.018" height="15.738" rx="1.406"/><rect class="cls-3" x="8.076" y="20.978" width="23.848" height="11.903" rx="1.487"/><path class="cls-4" d="M35.833,25.1H4.167v9.258A3.231,3.231,0,0,0,7.4,37.587H32.6a3.231,3.231,0,0,0,3.231-3.232Z"/><path class="cls-5" d="M26.8,8.822,20.664,2.688a.94.94,0,0,0-1.328,0L13.2,8.822a.484.484,0,0,0,.342.826h3a.54.54,0,0,1,.539.539v3.169a.458.458,0,0,0,.457.457h4.918a.458.458,0,0,0,.457-.457V10.187a.54.54,0,0,1,.539-.539h3A.484.484,0,0,0,26.8,8.822Z"/><rect class="cls-6" width="40" height="40"/></svg>
